app/assets/images/logo.svg

<svg xmlns="http://www.w3.org/2000/svg" viewBox="0 0 1000 1000" height="1000" width="1000"><g fill="#189efc"><path d="M500 0A500 500 0 0 0 0 500a500 500 0 0 0 500 500 500 500 0 0 0 500-500A500 500 0 0 0 500 0zm-2.5 271.1h107.24c-20.56 14.471-27.24 57.064-27.24 78.927v202.145c0 43.726-35.202 78.928-80 78.928s-80-35.202-80-78.928V350.027c0-43.725 35.202-78.927 80-78.927zm-276 48.9c44.798 0 80 35.202 80 78.928v202.144c0 21.863 6.68 64.456 27.24 78.928H221.5c-44.798 0-80-35.202-80-78.928V398.928c0-43.726 35.202-78.928 80-78.928zm550.24 0c44.799 0 80 35.202 80 78.928v202.144c0 43.726-35.201 78.928-80 78.928H664.5c20.56-14.472 27.24-57.065 27.24-78.928V398.928c0-43.726 35.202-78.928 80-78.928z"/><g transform="translate(-2)"><circle cx="223.5" cy="410.5" r="27.5"/><circle cx="223.5" cy="500.5" r="27.5"/><circle cx="223.5" cy="590.5" r="27.5"/></g><g transform="matrix(1 0 0 -1 274 951)"><circle cx="223.5" cy="410.5" r="27.5"/><circle cx="223.5" cy="500.5" r="27.5"/><circle cx="223.5" cy="590.5" r="27.5"/></g><g transform="matrix(-1 0 0 1 995 0)"><circle cx="223.5" cy="410.5" r="27.5"/><circle cx="223.5" cy="500.5" r="27.5"/><circle cx="223.5" cy="590.5" r="27.5"/></g></g></svg>

<?xml version="1.0" encoding="UTF-8"?>
<svg width="1000px" height="1000px" viewBox="0 0 1000 1000" version="1.1" xmlns="http://www.w3.org/2000/svg" xmlns:xlink="http://www.w3.org/1999/xlink">
    <!-- Generator: Sketch 43.1 (39012) - http://www.bohemiancoding.com/sketch -->
    <title>logo</title>
    <desc>Created with Sketch.</desc>
    <defs></defs>
    <g id="Page-1" stroke="none" stroke-width="1" fill="none" fill-rule="evenodd">
        <g id="logo" fill-rule="nonzero" fill="#398CCC">
            <path d="M500,0 C223.857625,-1.69088438e-14 3.38176876e-14,223.857625 0,500 C-3.38176876e-14,776.142375 223.857625,1000 500,1000 C776.142375,1000 1000,776.142375 1000,500 C1000,223.857625 776.142375,1.69088438e-14 500,0 Z M497.5,271.1 L604.74,271.1 C584.18,285.571 577.5,328.164 577.5,350.027 L577.5,552.172 C577.5,595.898 542.298,631.1 497.5,631.1 C452.702,631.1 417.5,595.898 417.5,552.172 L417.5,350.027 C417.5,306.302 452.702,271.1 497.5,271.1 L497.5,271.1 Z M221.5,320 C266.298,320 301.5,355.202 301.5,398.928 L301.5,601.072 C301.5,622.935 308.18,665.528 328.74,680 L221.5,680 C176.702,680 141.5,644.798 141.5,601.072 L141.5,398.928 C141.5,355.202 176.702,320 221.5,320 Z M771.74,320 C816.539,320 851.74,355.202 851.74,398.928 L851.74,601.072 C851.74,644.798 816.539,680 771.74,680 L664.5,680 C685.06,665.528 691.74,622.935 691.74,601.072 L691.74,398.928 C691.74,355.202 726.942,320 771.74,320 Z" id="Shape"></path>
            <g id="Group" transform="translate(194.000000, 383.000000)">
                <circle id="Oval" cx="27.5" cy="27.5" r="27.5"></circle>
                <circle id="Oval" cx="27.5" cy="117.5" r="27.5"></circle>
                <circle id="Oval" cx="27.5" cy="207.5" r="27.5"></circle>
            </g>
            <g id="Group" transform="translate(497.500000, 450.500000) scale(-1, 1) rotate(-180.000000) translate(-497.500000, -450.500000) translate(470.000000, 333.000000)">
                <circle id="Oval" cx="27.5" cy="27.5" r="27.5"></circle>
                <circle id="Oval" cx="27.5" cy="117.5" r="27.5"></circle>
                <circle id="Oval" cx="27.5" cy="207.5" r="27.5"></circle>
            </g>
            <g id="Group" transform="translate(771.500000, 500.500000) scale(-1, 1) translate(-771.500000, -500.500000) translate(744.000000, 383.000000)">
                <circle id="Oval" cx="27.5" cy="27.5" r="27.5"></circle>
                <circle id="Oval" cx="27.5" cy="117.5" r="27.5"></circle>
                <circle id="Oval" cx="27.5" cy="207.5" r="27.5"></circle>
            </g>
        </g>
    </g>
</svg>
